X:4
T:Un court caprice
R:
C:Anamnèse
H:1998
N:
O:France
A:Champaigne
Z:Eric Forgeot - http://anamnese.online.fr
M:6/4
L:1/16
Q:1/4=113
K:F
%%--staves [1 | 2 | 3]
%%measurenb 0
%%measurebox 1
%%staffsep 49pt
%%sysstaffsep 30pt
%%MIDI channel 1
%%MIDI program 3       % General MIDI piano
V:1
%%MIDI transpose +0
G2 | B3A G2 G2-G A2 B3 A2 G6F2 | B3A G2 G2-G A2 d3 c2 B6G2 |
B3A G2 G2-G A2 B3 A2 G6F2 | B3A G2 G2-G2 ^F2 G8 | G
V:2
%%MIDI transpose -12
z2 | D6 A3 B2 G13 | G3 G6 d4 B2 A5 G7
V:3
%%MIDI transpose -24
z2 | G6 G5 G13 | F6 E6 
%
%%G | B> A G G>A  z/ B>A z/ G3 z/ || F |  B>A G/ z/ G>A z/ d>c z/ B3 |
%%G/ z/ B>A G/ z/ G>A z/ B>A z/ G3 z/ F B>A G/ z/ G2 ^F/ z/ G4 | G
%%%% F B2 A/ G/ z G>A z d2 c/ z B3 | 
%
%%MIDI transpose 0

